X: 2
T:Corn Rigs
M:C
L:1/8
C:Trad
S:Chris Duncan Workshop - Nov 97
R:Reel
N:transcribed from notes given at a Scottish Fiddling workshop, November
N:1997.  The workshop was run by the Sydney Scottish Fiddlers, for more
N:information contact Trish Barker 61 2 9416 2402
N:from The Scottish Music List, Vol2 No 12
Z:Tim Barker, Nov 97
K:D
A||:d2 de f2 ed|cBcd e2 A2|d2 de fgfe|d2a2a2A2|!
d2 de gfed|cBcd e2 A2|BcdB edcB|A2d2d2:|!
A||:d2 a2 f2 a2|cBcd e2 A2|d2 a2 fg ef|d2 a2 a2 A2|!
d2 a2 bagf|gfed c2 A2|BcdB edcB|A2 d2 d2:|
